assets/img/braze_icons/flag-01.svg

<svg fill="none" height="24" viewBox="0 0 24 24" width="24" xmlns="http://www.w3.org/2000/svg"><path d="m3 2.99683c.00081-.25487.09844-.50948.29289-.70394 0 0-.04395.03808.0464-.04406.01997-.01815.04449-.03957.07383-.06373.05871-.04835.1365-.10753.2353-.1734.19798-.13198.47814-.28936.85519-.44018.75588-.30235 1.88367-.57152 3.49639-.57152 1.69345 0 3.0967.56148 4.3157 1.04923l.0557.02229c1.2681.50724 2.3479.92848 3.6286.92848 1.3873 0 2.2595-.23083 2.7536-.42848.248-.09918.4053-.1918.4886-.24732.0413-.02757.065-.0464.073-.05294.392-.36875 1.0087-.36154 1.3919.02163.1953.19527.2929.45119.2929.70711v11.999c.0002.2563-.0974.5126-.2929.7081l-.001.0011c-.0379.0376-.078.0728-.1192.1067-.0587.0483-.1365.1075-.2353.1734-.198.132-.4782.2894-.8552.4402-.7559.3023-1.8837.5715-3.4964.5715-1.6934 0-3.0967-.5615-4.3157-1.0492l-.0557-.0223c-1.2681-.5073-2.34791-.9285-3.6286-.9285-1.38728 0-2.25949.2308-2.75361.4285-.09516.038-.17698.0751-.24639.1096v6.4619c0 .5523-.44771 1-1 1-.55228 0-1-.4477-1-1v-6.9998s0 .0001 0 0v-12.0002c0-.001 0-.00217 0-.00317z" fill="#801ed7"/></svg>

<svg width="24" height="24" viewBox="0 0 24 24" fill="none" xmlns="http://www.w3.org/2000/svg">
<path d="M3 2.99683C3.00081 2.74196 3.09844 2.48735 3.29289 2.29289C3.29289 2.29289 3.24894 2.33097 3.33929 2.24883C3.35926 2.23068 3.38378 2.20926 3.41312 2.1851C3.47183 2.13675 3.54962 2.07757 3.64842 2.0117C3.8464 1.87972 4.12656 1.72234 4.50361 1.57152C5.25949 1.26917 6.38728 1 8 1C9.69345 1 11.0967 1.56148 12.3157 2.04923L12.3714 2.07152C13.6395 2.57876 14.7193 3 16 3C17.3873 3 18.2595 2.76917 18.7536 2.57152C19.0016 2.47234 19.1589 2.37972 19.2422 2.3242C19.2835 2.29663 19.3072 2.2778 19.3152 2.27126C19.7072 1.90251 20.3239 1.90972 20.7071 2.29289C20.9024 2.48816 21 2.74408 21 3V14.999C21.0002 15.2553 20.9026 15.5116 20.7071 15.7071L20.7061 15.7082C20.6682 15.7458 20.6281 15.781 20.5869 15.8149C20.5282 15.8632 20.4504 15.9224 20.3516 15.9883C20.1536 16.1203 19.8734 16.2777 19.4964 16.4285C18.7405 16.7308 17.6127 17 16 17C14.3066 17 12.9033 16.4385 11.6843 15.9508L11.6286 15.9285C10.3605 15.4212 9.28069 15 8 15C6.61272 15 5.74051 15.2308 5.24639 15.4285C5.15123 15.4665 5.06941 15.5036 5 15.5381L5 22C5 22.5523 4.55229 23 4 23C3.44772 23 3 22.5523 3 22L3 15.0002C3 15.0002 3 15.0003 3 15.0002L3 3C3 2.999 3 2.99783 3 2.99683Z" fill="#801ED7"/>
</svg>
